X:91
T:Toting
O:Scandinavia
M:3/4
L:1/8
Q:1/4=120
K:G
|:"G" DG B4|DG B4| "G"D>G .d2 "Am".c2| "D".B2 A4|
 "D"DF A4| "D"DF A4| "Am"AB .c2 "G".B2| "G".A2 G4:|
M:3/8
L:1/8
DG"G"B|"G"DGB|"G"DGB|"G"dcB|"D"DFA|"D"DFA | c"G"BA|"G"G3|
